icons/src/svg/wifi.svg

<svg width="32" height="32" viewBox="0 0 32 32" fill="none" xmlns="http://www.w3.org/2000/svg">
<path d="M18.0005 23.9998C18.0005 25.1044 17.1051 25.9999 16.0005 25.9999C14.896 25.9999 14.0005 25.1044 14.0005 23.9998C14.0005 22.8953 14.896 21.9998 16.0005 21.9998C17.1051 21.9998 18.0005 22.8953 18.0005 23.9998Z" fill="#0D0F13"/>
<path fill-rule="evenodd" clip-rule="evenodd" d="M28.2959 13.0929C21.5054 6.30236 10.4957 6.30236 3.70516 13.0929C3.31463 13.4834 2.68147 13.4834 2.29094 13.0929C1.90042 12.7024 1.90042 12.0692 2.29094 11.6787C9.86253 4.1071 22.1385 4.1071 29.7101 11.6787C30.1006 12.0692 30.1006 12.7024 29.7101 13.0929C29.3196 13.4834 28.6864 13.4834 28.2959 13.0929Z" fill="#0D0F13"/>
<path fill-rule="evenodd" clip-rule="evenodd" d="M20.7502 20.6392C18.1271 18.0161 13.8742 18.0161 11.2511 20.6392C10.8605 21.0297 10.2274 21.0297 9.83684 20.6392C9.44631 20.2487 9.44631 19.6155 9.83684 19.225C13.241 15.8208 18.7602 15.8208 22.1644 19.225C22.5549 19.6155 22.5549 20.2487 22.1644 20.6392C21.7739 21.0297 21.1407 21.0297 20.7502 20.6392Z" fill="#0D0F13"/>
<path fill-rule="evenodd" clip-rule="evenodd" d="M24.5154 16.8669C19.8127 12.1642 12.1881 12.1642 7.48543 16.8669C7.0949 17.2574 6.46174 17.2574 6.07121 16.8669C5.68069 16.4764 5.68069 15.8432 6.07121 15.4527C11.555 9.9689 20.4459 9.9689 25.9297 15.4527C26.3202 15.8432 26.3202 16.4764 25.9297 16.8669C25.5391 17.2574 24.906 17.2574 24.5154 16.8669Z" fill="#0D0F13"/>
</svg>

<?xml version="1.0" encoding="utf-8"?>
<!-- Generator: Adobe Illustrator 26.0.1, SVG Export Plug-In . SVG Version: 6.00 Build 0)  -->
<svg version="1.1" id="Layer_1" xmlns="http://www.w3.org/2000/svg" xmlns:xlink="http://www.w3.org/1999/xlink" x="0px" y="0px"
	 viewBox="0 0 32 32" style="enable-background:new 0 0 32 32;" xml:space="preserve">
<path d="M18,24c0,1.1-0.9,2-2,2c-1.1,0-2-0.9-2-2c0-1.1,0.9-2,2-2C17.1,22,18,22.9,18,24z M28.3,13.1c-6.8-6.8-17.8-6.8-24.6,0
	c-0.4,0.4-1,0.4-1.4,0c-0.4-0.4-0.4-1,0-1.4c7.6-7.6,19.8-7.6,27.4,0c0.4,0.4,0.4,1,0,1.4C29.3,13.5,28.7,13.5,28.3,13.1z
	 M20.7,20.6c-2.6-2.6-6.9-2.6-9.5,0c-0.4,0.4-1,0.4-1.4,0c-0.4-0.4-0.4-1,0-1.4c3.4-3.4,8.9-3.4,12.3,0c0.4,0.4,0.4,1,0,1.4
	C21.8,21,21.1,21,20.7,20.6z M24.5,16.9c-4.7-4.7-12.3-4.7-17,0c-0.4,0.4-1,0.4-1.4,0c-0.4-0.4-0.4-1,0-1.4c5.5-5.5,14.4-5.5,19.9,0
	c0.4,0.4,0.4,1,0,1.4C25.5,17.3,24.9,17.3,24.5,16.9z"/>
</svg>
